X:74
T: Fang fengzheng
N: C1572
O: China, Shandong, Dezhou
S: III, 372]
R: Xiaodiao]
M: 2/4
L: 1/32
K: A
e4e2c2f4e2c2 | e4B8c4 | e4e2c2f4e2c2 | B2e2c2B2A4z4
A6B2c4c4 | B3cB2A2A4A4 | E4F4E4z4
A2F2A2B2F4E4 | e2B2c2e2B8
e2B2c2e2B4A4 | F2E2F2A2E8
c4e4c2B2A2F2 | B2c2A2B2c8
B4c2e2B4A4 | B2A2F2E2A8
A2F2A8B2c2 | e8c6a2 | B2c2B12
B4e8c2B2 | A4B4A8
B4e4B4e4 | c2B2A2B2F4E4
e6c2B4e4- | e4c2B2A8 | e8B4A2F2 | E8
e6f2 | e4c4B2c4B2 | A2F2A8
B4 | A4A2B2c4e4 | B2A2F4z4A4 | C4E4F4
B4 | A6B2e4c4 | c4B4z4c2B2 | A4G4B4F4 | A4E12
e4e4e4B2A2 | G4F4E4z4
z4A4C4E2E2 | A2B2c2B2A8
F4B4G4F4 | c4B2A2G4F4
z4A4C4E4 | F4B4G4F4 | E16

